X:3
T:Home, Sweet Home 2
M:C
L: 1/4
Q: 1/2=60
K: D
 z4 | (FA) | (d3/2e/)(ef) | f2(df) | (e3/2d/e)c | d2 z (FA) | (d3/2e/)(ef)| f2(df) | (e3/2d/e)(A/G/) |
 F3 f | (f3/2a/)(gf) | f2(df) | (e3/2d/e) c | d3 f | (f3/2a/)(gf) | f2(df) | (e3/2d/)e (A/G/) | F3 |]
